packages/tokens/icons/condition/size24Px.svg

<svg viewBox="0 0 24 24" fill="none" xmlns="http://www.w3.org/2000/svg" width="1em" height="1em"><path d="M5.5 3.5H4.5C3.39543 3.5 2.5 4.39543 2.5 5.5L2.5 18.5C2.5 19.6046 3.39543 20.5 4.5 20.5H5.5" stroke="currentColor" stroke-linecap="round"/><path d="M18.5 4H19.5C20.6046 4 21.5 4.89543 21.5 6L21.5 19C21.5 20.1046 20.6046 21 19.5 21H18.5" stroke="currentColor" stroke-linecap="round"/><path d="M7.5 6.5L7.5 17.5M12.5 17.5L12.5 7.5C12.5 6.94772 12.9466 6.5 13.4988 6.5C14.573 6.5 16.297 6.5 17.5652 6.5M16.8261 12.5L12.8696 12.5" stroke="currentColor" stroke-linecap="round"/></svg>

<svg xmlns="http://www.w3.org/2000/svg" fill="none" viewBox="0 0 24 24" width="1em" height="1em"><path stroke="currentColor" stroke-linecap="round" d="M5.5 3.5h-1a2 2 0 0 0-2 2v13a2 2 0 0 0 2 2h1M18.5 4h1a2 2 0 0 1 2 2v13a2 2 0 0 1-2 2h-1M7.5 6.5v11m5 0v-10a1 1 0 0 1 .999-1h4.066m-.739 6H12.87"/></svg>
